X: 307
T: Pao xiuqiu
%%abc-version 2.0
%%abcx-abcm2ps-target-version 5.9.1 (29 Sep 2008)
%%abc-creator hum2abc beta
%%abcx-conversion-date 2013/10/02 07:52:29
%%abc-edited-by Helmut Schaffrath
%%humdrum-veritas 1361959334
%%humdrum-veritas-data 3404280124
%%continueall 1
%%barnumbers 0
L: 1/8
M: 3/8
K: G
d d g [I:setbarnb 1]| 
g B d | 
e d B | 
A A D | 
d d g | 
g B d | 
e d B | 
A3 | 
A d d | 
g e d | 
d B A | 
G G E | 
B A A | 
D G B | 
A A E | 
D3 |]  



